images_sukapura_svg/cmd/sc_commentchangetracking.svg

<svg viewBox="0 0 16 16" xmlns="http://www.w3.org/2000/svg" xmlns:xlink="http://www.w3.org/1999/xlink"><linearGradient id="a" gradientUnits="userSpaceOnUse" x1="10" x2="11.500001" y1="4" y2="2.499999"><stop offset="0" stop-color="#fff"/><stop offset=".77967989" stop-color="#f1f1f1"/><stop offset="1" stop-color="#d5d5d5"/></linearGradient><radialGradient id="b" cx="10.994179" cy="4.42844" gradientTransform="matrix(1.4 .00000004 -.00000001 1.2 -4.39185 -2.314129)" gradientUnits="userSpaceOnUse" r="5"><stop offset="0" stop-color="#d7d7d7"/><stop offset=".49894297" stop-color="#f7f7f7"/><stop offset="1" stop-color="#fff"/></radialGradient><path d="m3 1v14h10v-9.3632812-1.9316407l-2.695312-2.7050781zm10 12.496094-1.494141 1.503906h1.494141z" fill="url(#b)"/><path d="m3 0c-.554 0-1 .446-1 1v14c0 .554.446 1 1 1h2 .234375 5.261719 1.503906 1c.554 0 1-.446 1-1v-2.511719-6.894531-1.09375-.8632812l-3.636719-3.6367188h-.863281zm0 1h6v3.5c0 .277.223.5.5.5h3.5v.6367188 7.8632812 1.5h-1-.494141-6.2812496-.2246094-2zm7 0 3 3h-3zm-5.5 3c-.277 0-.5.223-.5.5s.223.5.5.5h3c.277 0 .5-.223.5-.5s-.223-.5-.5-.5zm0 6c-.277 0-.5.223-.5.5s.223.5.5.5h2.6777344l.7578125-.732422c-.0840546-.157278-.24408-.267578-.4355469-.267578zm0 3c-.277 0-.5.223-.5.5s.223.5.5.5h.9941406 1.0058594c.277 0 .5-.223.5-.5s-.223-.5-.5-.5h-.7363281z" fill="#98989d"/><rect fill="#ff9f0a" height="1" ry=".5" width="7" x="4" y="7"/><path d="m10 1 3 3h-3z" fill="url(#a)"/><path d="m8 6c-1.0907028 0-2 .9092972-2 2v2 1 2c0 .172565.029623.337475.072266.498047.00122.0046.00266.0091.00391.01367.00497.01701.010275.03377.015625.05078.00042.0014.00152.0025.00195.0039.046013.150839.108657.293625.1875.427735v.002c.00038.0014.00123.0026.00195.0039.3503521.591993.9900655.999968 1.716799.999968v1h2.414062l1-1h2.585938v-9h-1z" fill="#fff" fill-opacity=".784314"/><path d="m8 7c-.554 0-1 .446-1 1v5c0 .554.446 1 1 1h1v2l2-2h4c.554 0 1-.446 1-1v-5c0-.554-.446-1-1-1z" fill="#ff9500"/><path d="m8 8v5h1a1.0001 1.0001 0 0 1 .9355469.650391l.3574221-.357422a1.0001 1.0001 0 0 1 .707031-.292969h4v-5z" fill="#fff"/></svg>

<?xml version="1.0" encoding="UTF-8" standalone="no"?>
<svg
   xmlns:dc="http://purl.org/dc/elements/1.1/"
   xmlns:cc="http://creativecommons.org/ns#"
   xmlns:rdf="http://www.w3.org/1999/02/22-rdf-syntax-ns#"
   xmlns:svg="http://www.w3.org/2000/svg"
   xmlns="http://www.w3.org/2000/svg"
   xmlns:sodipodi="http://sodipodi.sourceforge.net/DTD/sodipodi-0.dtd"
   xmlns:inkscape="http://www.inkscape.org/namespaces/inkscape"
   viewBox="0 0 16 16"
   version="1.1"
   id="svg14"
   sodipodi:docname="sc_commentchangetracking.svg"
   inkscape:export-filename="/home/rizmut/Dokumen/Rizmut/Github/libreoffice-style-sukapura/images_sukapura/cmd/sc_commentchangetracking.png"
   inkscape:export-xdpi="96"
   inkscape:export-ydpi="96"
   inkscape:version="0.92.3 (unknown)">
  <metadata
     id="metadata20">
    <rdf:RDF>
      <cc:Work
         rdf:about="">
        <dc:format>image/svg+xml</dc:format>
        <dc:type
           rdf:resource="http://purl.org/dc/dcmitype/StillImage" />
        <dc:title></dc:title>
      </cc:Work>
    </rdf:RDF>
  </metadata>
  <defs
     id="defs18">
    <linearGradient
       id="a"
       gradientUnits="userSpaceOnUse"
       x1="10"
       x2="11.500001"
       y1="4"
       y2="2.4999993">
      <stop
         offset="0"
         stop-color="#fff"
         id="stop976" />
      <stop
         offset=".77967989"
         stop-color="#f1f1f1"
         id="stop978" />
      <stop
         offset="1"
         stop-color="#d5d5d5"
         id="stop980" />
    </linearGradient>
    <radialGradient
       id="b"
       cx="10.994179"
       cy="4.4284401"
       gradientTransform="matrix(1.4,4e-8,-1e-8,1.2,-4.39185,-2.314129)"
       gradientUnits="userSpaceOnUse"
       r="5">
      <stop
         offset="0"
         stop-color="#d7d7d7"
         id="stop983" />
      <stop
         offset=".49894297"
         stop-color="#f7f7f7"
         id="stop985" />
      <stop
         offset="1"
         stop-color="#fff"
         id="stop987" />
    </radialGradient>
  </defs>
  <sodipodi:namedview
     pagecolor="#ffffff"
     bordercolor="#666666"
     borderopacity="1"
     objecttolerance="10"
     gridtolerance="10"
     guidetolerance="10"
     inkscape:pageopacity="0"
     inkscape:pageshadow="2"
     inkscape:window-width="1366"
     inkscape:window-height="699"
     id="namedview16"
     showgrid="true"
     inkscape:zoom="14.75"
     inkscape:cx="1.9887788"
     inkscape:cy="4.8796047"
     inkscape:window-x="0"
     inkscape:window-y="0"
     inkscape:window-maximized="1"
     inkscape:current-layer="svg14">
    <inkscape:grid
       type="xygrid"
       id="grid831"
       spacingx="0.5"
       spacingy="0.5"
       empspacing="2" />
  </sodipodi:namedview>
  <path
     style="fill:url(#b)"
     d="M 3,1 V 15 H 13 V 5.6367188 3.7050781 L 10.304688,1 Z M 13,13.496094 11.505859,15 H 13 Z"
     id="path990"
     inkscape:connector-curvature="0"
     sodipodi:nodetypes="ccccccccccc" />
  <path
     style="fill:#98989d;fill-opacity:1"
     d="M 3 0 C 2.446 0 2 0.446 2 1 L 2 15 C 2 15.554 2.446 16 3 16 L 5 16 L 5.234375 16 L 10.496094 16 L 12 16 L 13 16 C 13.554 16 14 15.554 14 15 L 14 12.488281 L 14 5.59375 L 14 4.5 L 14 3.6367188 L 10.363281 0 L 9.5 0 L 3 0 z M 3 1 L 9 1 L 9 4.5 C 9 4.777 9.223 5 9.5 5 L 13 5 L 13 5.6367188 L 13 13.5 L 13 15 L 12 15 L 11.505859 15 L 5.2246094 15 L 5 15 L 3 15 L 3 1 z M 10 1 L 13 4 L 10 4 L 10 1 z M 4.5 4 C 4.223 4 4 4.223 4 4.5 C 4 4.777 4.223 5 4.5 5 L 7.5 5 C 7.777 5 8 4.777 8 4.5 C 8 4.223 7.777 4 7.5 4 L 4.5 4 z M 4.5 10 C 4.223 10 4 10.223 4 10.5 C 4 10.777 4.223 11 4.5 11 L 7.1777344 11 L 7.9355469 10.267578 C 7.8514923 10.1103 7.6914669 10 7.5 10 L 4.5 10 z M 4.5 13 C 4.223 13 4 13.223 4 13.5 C 4 13.777 4.223 14 4.5 14 L 5.4941406 14 L 6.5 14 C 6.777 14 7 13.777 7 13.5 C 7 13.223 6.777 13 6.5 13 L 5.7636719 13 L 4.5 13 z "
     id="path4" />
  <rect
     fill="#d65532"
     height="1"
     ry=".5"
     width="7"
     x="4"
     y="7"
     id="rect6"
     style="fill:#ff9f0a;fill-opacity:1" />
  <path
     inkscape:connector-curvature="0"
     style="fill:url(#a)"
     d="m 10,1 3,3 h -3 z"
     id="path994" />
  <path
     style="fill:#ffffff;fill-opacity:0.78431374"
     d="M 8,6 C 6.9092972,6 6,6.9092972 6,8 v 2 1 2 c 0,0.172565 0.029623,0.337475 0.072266,0.498047 0.00122,0.0046 0.00266,0.0091 0.00391,0.01367 0.00497,0.01701 0.010275,0.03377 0.015625,0.05078 4.2e-4,0.0014 0.00152,0.0025 0.00195,0.0039 0.046013,0.150839 0.108657,0.293625 0.1875,0.427735 v 0.002 c 3.8e-4,0.0014 0.00123,0.0026 0.00195,0.0039 C 6.6335531,14.592025 7.2732665,15 8,15 v 1 h 2.414062 l 1,-1 H 14 V 6 h -1 z"
     id="path2"
     inkscape:connector-curvature="0"
     sodipodi:nodetypes="ssccsccccccccccccccs" />
  <path
     inkscape:connector-curvature="0"
     style="fill:#ff9500;fill-opacity:1"
     d="M 8,7 C 7.446,7 7,7.446 7,8 v 5 c 0,0.554 0.446,1 1,1 h 1 v 2 l 2,-2 h 4 c 0.554,0 1,-0.446 1,-1 V 8 C 16,7.446 15.554,7 15,7 Z"
     id="path8" />
  <path
     sodipodi:type="inkscape:offset"
     inkscape:radius="-1"
     inkscape:original="M 8 7 C 7.446 7 7 7.446 7 8 L 7 13 C 7 13.554 7.446 14 8 14 L 9 14 L 9 16 L 11 14 L 15 14 C 15.554 14 16 13.554 16 13 L 16 8 C 16 7.446 15.554 7 15 7 L 8 7 z "
     style="fill:#ffffff;fill-opacity:1"
     id="path846"
     d="m 8,8 v 5 h 1 a 1.0001,1.0001 0 0 1 0.9355469,0.650391 L 10.292969,13.292969 A 1.0001,1.0001 0 0 1 11,13 h 4 V 8 Z" />
</svg>
